X: 22357
T: Lac Amora
R: reel
M: 4/4
K: Dminor
|:EFED ~A2 Bc|BAdB AGFE|DEDC ~A2 Bc|GFED ^C4:|
|:d2 ef feda|agcc fed^c|~d2 ef feda|1 aged g3 ^c:|2 fed^c d4||
|:aa f2 gg e2|fedf e 3^c|dfeg (3ege) fg|1 afef e3 z:|2 fed^c- dAFE|D6 z2||

